resources/svg/edit-1-o.svg

<svg xmlns="http://www.w3.org/2000/svg" viewBox="0 0 15 15" fill="none"><path d="M0.5 9.5L0.146447 9.14645L0 9.29289V9.5H0.5ZM9.5 0.5L9.85355 0.146447C9.65829 -0.0488155 9.34171 -0.0488155 9.14645 0.146447L9.5 0.5ZM14.5 5.5L14.8536 5.85355C15.0488 5.65829 15.0488 5.34171 14.8536 5.14645L14.5 5.5ZM5.5 14.5V15H5.70711L5.85355 14.8536L5.5 14.5ZM0.5 14.5H0C0 14.7761 0.223858 15 0.5 15L0.5 14.5ZM0.853553 9.85355L9.85355 0.853553L9.14645 0.146447L0.146447 9.14645L0.853553 9.85355ZM9.14645 0.853553L14.1464 5.85355L14.8536 5.14645L9.85355 0.146447L9.14645 0.853553ZM14.1464 5.14645L5.14645 14.1464L5.85355 14.8536L14.8536 5.85355L14.1464 5.14645ZM5.5 14H0.5V15H5.5V14ZM1 14.5V9.5H0V14.5H1ZM6.14645 3.85355L11.1464 8.85355L11.8536 8.14645L6.85355 3.14645L6.14645 3.85355ZM8 15H15V14H8V15Z" fill="black"/></svg>

<svg xmlns="http://www.w3.org/2000/svg" viewBox="0 0 15 15" fill="none"><path d="M.5 9.5l-.354-.354L0 9.293V9.5h.5zm9-9l.354-.354a.5.5 0 00-.708 0L9.5.5zm5 5l.354.354a.5.5 0 000-.708L14.5 5.5zm-9 9v.5h.207l.147-.146L5.5 14.5zm-5 0H0a.5.5 0 00.5.5v-.5zm.354-4.646l9-9-.708-.708-9 9 .708.708zm8.292-9l5 5 .708-.708-5-5-.708.708zm5 4.292l-9 9 .708.708 9-9-.708-.708zM5.5 14h-5v1h5v-1zm-4.5.5v-5H0v5h1zM6.146 3.854l5 5 .708-.708-5-5-.708.708zM8 15h7v-1H8v1z" fill="currentColor"/></svg>
